;START_OF_HEADER
;HEADER_VERSION:0.1
;FLAVOR:Griffin
;GENERATOR.NAME:Cura_SteamEngine
;GENERATOR.VERSION:4.3.0
;GENERATOR.BUILD_DATE:2019-09-24
;TARGET_MACHINE.NAME:Ultimaker 3
;EXTRUDER_TRAIN.0.INITIAL_TEMPERATURE:205
;EXTRUDER_TRAIN.0.MATERIAL.VOLUME_USED:99
;EXTRUDER_TRAIN.0.MATERIAL.GUID:506c9f0d-e3aa-4bd4-b2d2-23e2425b1aa9
;EXTRUDER_TRAIN.0.NOZZLE.DIAMETER:0.4
;EXTRUDER_TRAIN.0.NOZZLE.NAME:AA 0.4
;BUILD_PLATE.TYPE:glass
;BUILD_PLATE.INITIAL_TEMPERATURE:60
;PRINT.TIME:52
;PRINT.GROUPS:1
;PRINT.SIZE.MIN.X:9
;PRINT.SIZE.MIN.Y:6
;PRINT.SIZE.MIN.Z:0.27
;PRINT.SIZE.MAX.X:126.553
;PRINT.SIZE.MAX.Y:118.577
;PRINT.SIZE.MAX.Z:2.27
;END_OF_HEADER
;Generated with Cura_SteamEngine 4.3.0
T0
M82 ;absolute extrusion mode

G92 E0
M109 S205
G0 F15000 X9 Y6 Z2
G280
G1 F1500 E-6.5
;LAYER_COUNT:3
;LAYER:0
M107
M204 S625
M205 X6 Y6
G1 F600 Z2.27
G0 F4285.7 X109.672 Y99.672 Z2.27
M204 S500
M205 X5 Y5
;TYPE:SKIRT
G1 F600 Z0.27
G1 F1500 E0
G1 F1200 X110.193 Y99.141 E0.01322
G1 X110.769 Y98.668 E0.02647
G1 X111.391 Y98.26 E0.0397
G1 X112.252 Y97.836 E0.05676
G1 X114.454 Y96.936 E0.09904
G1 X115.157 Y96.692 E0.11227
G1 X115.882 Y96.525 E0.12549
G1 X116.621 Y96.436 E0.13873
G1 X117.366 Y96.427 E0.15197
G1 X118.107 Y96.498 E0.1652
G1 X118.836 Y96.648 E0.17843
G1 X119.544 Y96.876 E0.19165
G1 X120.225 Y97.178 E0.2049
G1 X120.869 Y97.551 E0.21813
G1 X121.609 Y98.109 E0.2346
G1 X123.458 Y99.708 E0.27805
G1 X123.994 Y100.225 E0.29129
G1 X124.472 Y100.796 E0.30453
G1 X124.885 Y101.414 E0.31774
G1 X125.23 Y102.074 E0.33098
G1 X125.502 Y102.767 E0.34421
G1 X125.698 Y103.485 E0.35744
G1 X125.816 Y104.22 E0.37068
G1 X125.855 Y104.95 E0.38367
G1 X125.855 Y105.042 E0.38531
G1 X125.971 Y105.284 E0.39008
G1 X126.221 Y105.985 E0.40331
G1 X126.393 Y106.709 E0.41654
G1 X126.503 Y107.772 E0.43553
G1 X126.553 Y109.722 E0.47021
G1 X126.532 Y110.466 E0.48344
G1 X126.431 Y111.204 E0.49668
G1 X126.252 Y111.926 E0.5099
G1 X125.997 Y112.625 E0.52313
G1 X125.668 Y113.293 E0.53636
G1 X125.269 Y113.921 E0.54959
G1 X124.805 Y114.504 E0.56283
G1 X124.281 Y115.033 E0.57607
G1 X123.704 Y115.502 E0.58929
G1 X123.08 Y115.908 E0.60252
G1 X122.107 Y116.37 E0.62167
G1 X119.24 Y117.47 E0.67625
G1 X118.532 Y117.699 E0.68948
G1 X118.109 Y117.787 E0.69716
G1 X117.491 Y117.933 E0.70845
G1 X114.642 Y118.463 E0.75996
G1 X113.904 Y118.56 E0.77319
G1 X113.16 Y118.577 E0.78642
G1 X112.419 Y118.514 E0.79964
G1 X111.688 Y118.372 E0.81288
G1 X110.977 Y118.152 E0.82611
G1 X110.293 Y117.857 E0.83935
G1 X109.645 Y117.491 E0.85258
G1 X109.041 Y117.057 E0.8658
G1 X108.486 Y116.561 E0.87903
G1 X107.987 Y116.008 E0.89227
G1 X107.551 Y115.405 E0.9055
G1 X107.182 Y114.759 E0.91873
G1 X106.884 Y114.077 E0.93196
G1 X106.661 Y113.367 E0.94518
G1 X106.516 Y112.637 E0.95841
G1 X106.445 Y111.65 E0.976
G1 X106.445 Y109.85 E1.008
G1 X106.485 Y109.107 E1.02123
G1 X106.604 Y108.372 E1.03446
G1 X106.802 Y107.654 E1.0477
G1 X106.945 Y107.292 E1.05462
G1 X106.945 Y106.05 E1.0767
G1 X106.985 Y105.307 E1.08993
G1 X107.104 Y104.572 E1.10316
G1 X107.302 Y103.854 E1.1164
G1 X107.575 Y103.162 E1.12962
G1 X107.816 Y102.686 E1.13911
G1 X108.815 Y100.887 E1.17569
G1 X109.211 Y100.256 E1.18893
G1 X109.672 Y99.672 E1.20216
M204 S625
M205 X6 Y6
G0 F4285.7 X110.017 Y99.916
M204 S500
M205 X5 Y5
G1 F1200 X110.526 Y99.405 E1.21498
G1 X111.089 Y98.954 E1.2278
G1 X111.699 Y98.568 E1.24063
G1 X112.411 Y98.225 E1.25468
G1 X114.613 Y97.325 E1.29697
G1 X115.295 Y97.089 E1.30979
G1 X115.999 Y96.931 E1.32262
G1 X116.716 Y96.851 E1.33544
G1 X117.437 Y96.851 E1.34826
G1 X118.154 Y96.931 E1.36109
G1 X118.858 Y97.09 E1.37392
G1 X119.539 Y97.325 E1.38672
G1 X120.191 Y97.635 E1.39955
G1 X120.804 Y98.014 E1.41237
G1 X121.334 Y98.427 E1.42431
G1 X123.183 Y100.026 E1.46776
G1 X123.702 Y100.527 E1.48059
G1 X124.162 Y101.083 E1.49341
G1 X124.558 Y101.686 E1.50624
G1 X124.884 Y102.329 E1.51905
G1 X125.138 Y103.005 E1.53189
G1 X125.315 Y103.704 E1.54471
G1 X125.413 Y104.419 E1.55754
G1 X125.435 Y104.95 E1.56698
G1 X125.435 Y105.117 E1.56995
G1 X125.704 Y105.756 E1.58228
G1 X125.909 Y106.448 E1.5951
G1 X126.037 Y107.158 E1.60793
G1 X126.083 Y107.783 E1.61907
G1 X126.133 Y109.733 E1.65374
G1 X126.111 Y110.454 E1.66657
G1 X126.01 Y111.168 E1.67938
G1 X125.831 Y111.867 E1.69221
G1 X125.575 Y112.542 E1.70504
G1 X125.246 Y113.184 E1.71787
G1 X124.848 Y113.786 E1.7307
G1 X124.386 Y114.34 E1.74352
G1 X123.866 Y114.839 E1.75633
G1 X123.293 Y115.278 E1.76916
G1 X122.676 Y115.651 E1.78198
G1 X121.957 Y115.978 E1.79602
G1 X119.09 Y117.078 E1.8506
G1 X118.403 Y117.299 E1.86343
G1 X117.938 Y117.393 E1.87186
G1 X117.774 Y117.443 E1.87491
G1 X117.415 Y117.52 E1.88144
G1 X114.566 Y118.05 E1.93295
G1 X113.85 Y118.143 E1.94579
G1 X113.129 Y118.155 E1.9586
G1 X112.411 Y118.088 E1.97142
G1 X111.704 Y117.942 E1.98426
G1 X111.018 Y117.718 E1.99708
G1 X110.361 Y117.42 E2.00991
G1 X109.741 Y117.052 E2.02272
G1 X109.166 Y116.616 E2.03555
G1 X108.642 Y116.12 E2.04838
G1 X108.177 Y115.569 E2.06119
G1 X107.775 Y114.97 E2.07402
G1 X107.442 Y114.33 E2.08684
G1 X107.182 Y113.657 E2.09967
G1 X106.998 Y112.96 E2.11248
G1 X106.892 Y112.246 E2.12531
G1 X106.865 Y111.65 E2.13592
G1 X106.865 Y109.85 E2.16791
G1 X106.905 Y109.13 E2.18073
G1 X107.024 Y108.418 E2.19356
G1 X107.222 Y107.724 E2.20639
G1 X107.365 Y107.375 E2.2131
G1 X107.365 Y106.05 E2.23665
G1 X107.405 Y105.33 E2.24947
G1 X107.524 Y104.618 E2.2623
G1 X107.722 Y103.924 E2.27513
G1 X107.995 Y103.257 E2.28794
G1 X108.184 Y102.89 E2.29528
G1 X109.183 Y101.091 E2.33186
G1 X109.567 Y100.48 E2.34469
G1 X110.017 Y99.916 E2.35751
M204 S625
M205 X6 Y6
G0 F4285.7 X110.361 Y100.162
M204 S500
M205 X5 Y5
G1 F1200 X110.858 Y99.672 E2.36992
G1 X111.408 Y99.243 E2.38232
G1 X112.004 Y98.88 E2.39472
G1 X112.57 Y98.614 E2.40584
G1 X114.772 Y97.714 E2.44813
G1 X115.432 Y97.487 E2.46053
G1 X116.113 Y97.338 E2.47292
G1 X116.807 Y97.267 E2.48532
G1 X117.505 Y97.276 E2.49773
G1 X118.197 Y97.365 E2.51014
G1 X118.874 Y97.533 E2.52254
G1 X119.528 Y97.776 E2.53494
G1 X120.15 Y98.094 E2.54736
G1 X120.731 Y98.48 E2.55975
G1 X121.06 Y98.745 E2.56726
G1 X122.909 Y100.344 E2.61072
G1 X123.409 Y100.829 E2.6231
G1 X123.851 Y101.369 E2.6355
G1 X124.228 Y101.956 E2.64791
G1 X124.536 Y102.583 E2.66032
G1 X124.77 Y103.24 E2.67272
G1 X124.927 Y103.92 E2.68513
G1 X125.015 Y104.95 E2.7035
G1 X125.015 Y105.234 E2.70855
G1 X125.18 Y105.567 E2.71516
G1 X125.415 Y106.224 E2.72756
G1 X125.574 Y106.903 E2.73996
G1 X125.663 Y107.794 E2.75587
G1 X125.713 Y109.744 E2.79055
G1 X125.691 Y110.441 E2.80294
G1 X125.589 Y111.132 E2.81536
G1 X125.409 Y111.806 E2.82776
G1 X125.153 Y112.455 E2.84016
G1 X124.825 Y113.07 E2.85255
G1 X124.428 Y113.644 E2.86496
G1 X123.968 Y114.169 E2.87737
G1 X123.451 Y114.638 E2.88978
G1 X122.884 Y115.044 E2.90217
G1 X122.275 Y115.383 E2.91456
G1 X121.807 Y115.586 E2.92363
G1 X118.94 Y116.686 E2.97822
G1 X118.275 Y116.898 E2.99062
G1 X117.784 Y116.995 E2.99952
G1 X117.338 Y117.107 E3.00769
G1 X114.489 Y117.637 E3.05921
G1 X113.797 Y117.725 E3.07161
G1 X113.099 Y117.734 E3.08402
G1 X112.405 Y117.662 E3.09642
G1 X111.724 Y117.512 E3.10881
G1 X111.064 Y117.285 E3.12122
G1 X110.435 Y116.983 E3.13362
G1 X109.844 Y116.612 E3.14603
G1 X109.3 Y116.175 E3.15843
G1 X108.809 Y115.68 E3.17082
G1 X108.378 Y115.131 E3.18323
G1 X108.013 Y114.537 E3.19563
G1 X107.718 Y113.904 E3.20804
G1 X107.497 Y113.242 E3.22045
G1 X107.353 Y112.56 E3.23284
G1 X107.285 Y111.65 E3.24906
G1 X107.285 Y109.85 E3.28105
G1 X107.325 Y109.153 E3.29346
G1 X107.444 Y108.466 E3.30586
G1 X107.642 Y107.797 E3.31826
G1 X107.785 Y107.459 E3.32478
G1 X107.785 Y106.05 E3.34983
G1 X107.825 Y105.353 E3.36224
G1 X107.944 Y104.666 E3.37463
G1 X108.142 Y103.997 E3.38704
G1 X108.551 Y103.093 E3.40467
G1 X109.55 Y101.294 E3.44125
G1 X109.923 Y100.705 E3.45365
G1 X110.361 Y100.162 E3.46605
M204 S625
M205 X6 Y6
G0 F4285.7 X110.704 Y100.409
M204 S500
M205 X5 Y5
G1 F1200 X111.189 Y99.942 E3.47802
G1 X111.726 Y99.535 E3.48999
G1 X112.307 Y99.196 E3.50195
G1 X112.729 Y99.002 E3.51021
G1 X114.931 Y98.102 E3.55249
G1 X115.568 Y97.885 E3.56445
G1 X116.226 Y97.745 E3.57641
G1 X116.897 Y97.684 E3.58839
G1 X117.57 Y97.703 E3.60036
G1 X118.236 Y97.801 E3.61232
G1 X118.885 Y97.977 E3.62428
G1 X119.51 Y98.23 E3.63626
G1 X120.099 Y98.554 E3.64821
G1 X120.785 Y99.062 E3.66339
G1 X122.634 Y100.661 E3.70684
G1 X123.116 Y101.131 E3.71881
G1 X123.539 Y101.655 E3.73078
G1 X123.897 Y102.225 E3.74274
G1 X124.185 Y102.833 E3.7547
G1 X124.399 Y103.472 E3.76668
G1 X124.536 Y104.131 E3.77865
G1 X124.595 Y104.95 E3.79324
G1 X124.595 Y105.325 E3.79991
G1 X124.65 Y105.421 E3.80187
G1 X124.914 Y106.04 E3.81384
G1 X125.102 Y106.686 E3.8258
G1 X125.213 Y107.35 E3.83776
G1 X125.243 Y107.805 E3.84587
G1 X125.293 Y109.755 E3.88054
G1 X125.27 Y110.427 E3.8925
G1 X125.168 Y111.093 E3.90447
G1 X124.988 Y111.741 E3.91643
G1 X124.732 Y112.364 E3.9284
G1 X124.404 Y112.952 E3.94037
G1 X124.008 Y113.497 E3.95234
G1 X123.551 Y113.991 E3.96431
G1 X123.038 Y114.427 E3.97628
G1 X122.478 Y114.8 E3.98824
G1 X121.656 Y115.194 E4.00444
G1 X118.789 Y116.294 E4.05903
G1 X118.147 Y116.497 E4.07099
G1 X117.791 Y116.565 E4.07744
G1 X117.704 Y116.594 E4.07907
G1 X117.261 Y116.694 E4.08714
G1 X114.412 Y117.224 E4.13865
G1 X113.744 Y117.308 E4.15062
G1 X113.071 Y117.312 E4.16258
G1 X112.402 Y117.236 E4.17455
G1 X111.747 Y117.081 E4.18652
G1 X111.115 Y116.85 E4.19848
G1 X110.514 Y116.545 E4.21046
G1 X109.954 Y116.172 E4.22242
G1 X109.442 Y115.734 E4.2344
G1 X108.986 Y115.24 E4.24635
G1 X108.591 Y114.694 E4.25833
G1 X108.264 Y114.106 E4.27029
G1 X108.009 Y113.483 E4.28225
G1 X107.83 Y112.834 E4.29422
G1 X107.729 Y112.168 E4.30619
G1 X107.705 Y111.65 E4.31541
G1 X107.705 Y109.85 E4.34741
G1 X107.745 Y109.178 E4.35938
G1 X107.864 Y108.515 E4.37135
G1 X108.061 Y107.872 E4.3833
G1 X108.205 Y107.546 E4.38964
G1 X108.205 Y106.05 E4.41623
G1 X108.245 Y105.378 E4.4282
G1 X108.364 Y104.715 E4.44017
G1 X108.561 Y104.072 E4.45213
G1 X108.918 Y103.297 E4.46729
G1 X109.917 Y101.498 E4.50387
G1 X110.278 Y100.93 E4.51584
G1 X110.704 Y100.409 E4.5278
M204 S625
M205 X6 Y6
G0 F4285.7 X111.046 Y100.658
M204 S500
M205 X5 Y5
G1 F1200 X111.518 Y100.214 E4.53932
G1 X112.041 Y99.831 E4.55084
G1 X112.888 Y99.391 E4.56781
G1 X115.09 Y98.491 E4.61009
G1 X115.703 Y98.284 E4.6216
G1 X116.338 Y98.153 E4.63312
G1 X116.984 Y98.102 E4.64464
G1 X117.631 Y98.13 E4.65615
G1 X118.269 Y98.238 E4.66765
G1 X118.89 Y98.424 E4.67918
G1 X119.483 Y98.685 E4.69069
G1 X120.039 Y99.017 E4.70221
G1 X120.51 Y99.38 E4.71278
G1 X122.359 Y100.979 E4.75623
G1 X122.822 Y101.432 E4.76774
G1 X123.226 Y101.939 E4.77927
G1 X123.564 Y102.491 E4.79077
G1 X123.831 Y103.081 E4.80229
G1 X124.024 Y103.7 E4.81381
G1 X124.139 Y104.337 E4.82532
G1 X124.175 Y104.95 E4.83623
G1 X124.175 Y105.433 E4.84482
G1 X124.407 Y105.897 E4.85404
G1 X124.623 Y106.508 E4.86556
G1 X124.762 Y107.14 E4.87706
G1 X124.823 Y107.815 E4.88911
G1 X124.873 Y109.765 E4.92379
G1 X124.85 Y110.413 E4.93531
G1 X124.747 Y111.052 E4.94682
G1 X124.566 Y111.674 E4.95833
G1 X124.31 Y112.269 E4.96985
G1 X123.983 Y112.828 E4.98136
G1 X123.589 Y113.343 E4.99289
G1 X123.135 Y113.804 E5.00439
G1 X122.627 Y114.207 E5.01591
G1 X122.074 Y114.544 E5.02742
G1 X121.506 Y114.802 E5.03851
G1 X118.639 Y115.902 E5.0931
G1 X118.021 Y116.096 E5.10461
G1 X117.566 Y116.18 E5.11284
G1 X117.184 Y116.281 E5.11986
G1 X114.335 Y116.811 E5.17138
G1 X113.692 Y116.89 E5.18289
G1 X113.044 Y116.89 E5.19441
G1 X112.402 Y116.809 E5.20591
G1 X111.774 Y116.65 E5.21743
G1 X111.17 Y116.415 E5.22895
G1 X110.6 Y116.107 E5.24047
G1 X110.073 Y115.731 E5.25197
G1 X109.595 Y115.293 E5.2635
G1 X109.175 Y114.8 E5.27501
G1 X108.819 Y114.259 E5.28652
G1 X108.533 Y113.678 E5.29803
G1 X108.32 Y113.066 E5.30955
G1 X108.184 Y112.433 E5.32106
G1 X108.125 Y111.65 E5.33502
G1 X108.125 Y109.85 E5.36702
G1 X108.165 Y109.203 E5.37854
G1 X108.284 Y108.567 E5.39004
G1 X108.481 Y107.95 E5.40156
G1 X108.625 Y107.637 E5.40768
G1 X108.625 Y106.05 E5.43589
G1 X108.665 Y105.403 E5.44741
G1 X108.784 Y104.767 E5.45892
G1 X108.981 Y104.15 E5.47043
G1 X109.285 Y103.501 E5.48317
G1 X110.284 Y101.702 E5.51975
G1 X110.633 Y101.156 E5.53127
G1 X111.046 Y100.658 E5.54277
M204 S625
M205 X6 Y6
G0 F4285.7 X111.388 Y100.908
M204 S500
M205 X5 Y5
G1 F1200 X111.845 Y100.488 E5.5538
G1 X112.354 Y100.131 E5.56485
G1 X113.047 Y99.78 E5.57866
G1 X115.249 Y98.88 E5.62095
G1 X115.838 Y98.682 E5.63199
G1 X116.447 Y98.562 E5.64303
G1 X117.067 Y98.521 E5.65407
G1 X117.687 Y98.56 E5.66511
G1 X118.297 Y98.678 E5.67616
G1 X118.887 Y98.873 E5.6872
G1 X119.447 Y99.143 E5.69825
G1 X119.967 Y99.482 E5.70929
G1 X120.235 Y99.698 E5.71541
G1 X122.084 Y101.297 E5.75886
G1 X122.527 Y101.732 E5.7699
G1 X122.91 Y102.221 E5.78094
G1 X123.228 Y102.756 E5.792
G1 X123.474 Y103.326 E5.80304
G1 X123.645 Y103.923 E5.81408
G1 X123.737 Y104.538 E5.82513
G1 X123.755 Y104.95 E5.83246
G1 X123.755 Y105.55 E5.84313
G1 X123.898 Y105.796 E5.84819
G1 X124.139 Y106.369 E5.85924
G1 X124.304 Y106.968 E5.87028
G1 X124.403 Y107.826 E5.88563
G1 X124.453 Y109.776 E5.92031
G1 X124.429 Y110.397 E5.93135
G1 X124.326 Y111.01 E5.9424
G1 X124.144 Y111.604 E5.95345
G1 X123.888 Y112.17 E5.96449
G1 X123.562 Y112.698 E5.97552
G1 X123.17 Y113.181 E5.98658
G1 X122.72 Y113.608 E5.9976
G1 X122.218 Y113.975 E6.00866
G1 X121.673 Y114.274 E6.01971
G1 X121.355 Y114.409 E6.02585
G1 X118.488 Y115.509 E6.08044
G1 X117.895 Y115.694 E6.09148
G1 X117.613 Y115.743 E6.09657
G1 X117.575 Y115.757 E6.09729
G1 X117.107 Y115.869 E6.10584
G1 X114.258 Y116.399 E6.15735
G1 X113.642 Y116.473 E6.16838
G1 X113.02 Y116.467 E6.17944
G1 X112.405 Y116.382 E6.19047
G1 X111.806 Y116.218 E6.20151
G1 X111.232 Y115.979 E6.21257
G1 X110.694 Y115.668 E6.22361
G1 X110.201 Y115.29 E6.23466
G1 X109.76 Y114.853 E6.24569
G1 X109.378 Y114.362 E6.25675
G1 X109.063 Y113.827 E6.26779
G1 X108.82 Y113.255 E6.27883
G1 X108.651 Y112.657 E6.28988
G1 X108.561 Y112.043 E6.30091
G1 X108.545 Y111.65 E6.3079
G1 X108.545 Y109.85 E6.3399
G1 X108.585 Y109.23 E6.35094
G1 X108.704 Y108.62 E6.36199
G1 X108.901 Y108.031 E6.37303
G1 X109.045 Y107.733 E6.37892
G1 X109.045 Y106.05 E6.40883
G1 X109.085 Y105.43 E6.41988
G1 X109.204 Y104.82 E6.43092
G1 X109.401 Y104.231 E6.44196
G1 X109.652 Y103.705 E6.45232
G1 X110.651 Y101.906 E6.4889
G1 X110.987 Y101.384 E6.49994
G1 X111.388 Y100.908 E6.511
M204 S625
M205 X6 Y6
G0 F4285.7 X111.728 Y101.161
M204 S500
M205 X5 Y5
G1 F1200 X112.171 Y100.766 E6.52155
G1 X112.664 Y100.435 E6.53211
G1 X113.206 Y100.169 E6.54284
G1 X115.408 Y99.269 E6.58513
G1 X115.971 Y99.082 E6.59567
G1 X116.554 Y98.972 E6.60622
G1 X117.147 Y98.942 E6.61677
G1 X117.739 Y98.991 E6.62733
G1 X118.318 Y99.12 E6.63788
G1 X118.875 Y99.325 E6.64843
G1 X119.4 Y99.603 E6.65899
G1 X119.961 Y100.015 E6.67136
G1 X121.81 Y101.614 E6.71481
G1 X122.232 Y102.032 E6.72537
G1 X122.593 Y102.502 E6.73591
G1 X122.889 Y103.017 E6.74647
G1 X123.113 Y103.567 E6.75702
G1 X123.26 Y104.142 E6.76757
G1 X123.335 Y104.95 E6.782
G1 X123.335 Y105.657 E6.79456
G1 X123.391 Y105.74 E6.79634
G1 X123.653 Y106.272 E6.80689
G1 X123.842 Y106.835 E6.81744
G1 X123.953 Y107.418 E6.82799
G1 X123.984 Y107.837 E6.83546
G1 X124.034 Y109.787 E6.87014
G1 X124.009 Y110.38 E6.88069
G1 X123.905 Y110.964 E6.89123
G1 X123.723 Y111.53 E6.9018
G1 X123.467 Y112.065 E6.91234
G1 X123.141 Y112.562 E6.92291
G1 X122.752 Y113.01 E6.93345
G1 X122.306 Y113.402 E6.94401
G1 X121.811 Y113.73 E6.95457
G1 X121.205 Y114.017 E6.96648
G1 X118.338 Y115.117 E7.02107
G1 X117.77 Y115.292 E7.03164
G1 X117.399 Y115.353 E7.03832
G1 X117.031 Y115.456 E7.04511
G1 X114.182 Y115.986 E7.09662
G1 X113.592 Y116.055 E7.10718
G1 X112.998 Y116.044 E7.11774
G1 X112.412 Y115.954 E7.12828
G1 X111.842 Y115.785 E7.13885
G1 X111.301 Y115.542 E7.14939
G1 X110.797 Y115.228 E7.15995
G1 X110.34 Y114.849 E7.1705
G1 X109.938 Y114.413 E7.18105
G1 X109.598 Y113.926 E7.1916
G1 X109.326 Y113.398 E7.20216
G1 X109.128 Y112.839 E7.2127
G1 X109.007 Y112.257 E7.22327
G1 X108.965 Y111.65 E7.23409
G1 X108.965 Y109.85 E7.26608
G1 X109.005 Y109.258 E7.27663
G1 X109.124 Y108.676 E7.28719
G1 X109.32 Y108.116 E7.29774
